images/footer-right.svg

<svg width="155" height="253" viewBox="0 0 155 253" fill="none" xmlns="http://www.w3.org/2000/svg">
<mask id="mask0" mask-type="alpha" maskUnits="userSpaceOnUse" x="28" y="0" width="161" height="195">
<path d="M28.3075 0H188.001V194.789H28.3075V0Z" fill="white"/>
</mask>
<g mask="url(#mask0)">
<path fill-rule="evenodd" clip-rule="evenodd" d="M154.409 190.425C183.454 170.495 189.472 134.274 187.724 101.831C187.433 96.414 187.959 90.6942 185.154 85.9812C182.345 81.273 175.939 78.1259 170.86 80.4918C166.647 82.4559 164.879 87.1653 162.572 91.0747C159.505 96.2769 154.871 100.615 149.376 103.429C145.766 105.279 141.281 106.446 137.65 104.625C132.672 102.127 131.976 95.6801 131.914 90.2876C131.798 80.2425 131.683 70.1973 131.57 60.1521C131.508 54.7632 131.426 49.2608 129.564 44.1744C127.703 39.0869 123.708 34.4011 118.27 33.0515C112.833 31.7019 106.196 34.7651 105.147 40.0595C104.711 42.2623 105.224 44.5337 105.106 46.7732C104.988 49.0126 103.933 51.505 101.701 52.1645C99.4404 52.8334 97.1383 51.3431 95.4086 49.7914C89.4396 44.4462 85.329 37.5009 81.4809 30.5898C77.6316 23.6788 73.8884 16.6011 68.4531 10.7501C63.0215 4.9026 55.5677 0.318458 47.4116 0.0123759C39.2567 -0.291342 30.6619 4.61069 28.741 12.2202C26.8125 19.8533 31.628 27.4853 36.8321 33.5537C44.5496 42.5566 53.6306 50.4828 63.6989 57.0003C65.5136 58.1786 67.482 59.449 68.2044 61.4344C69.5029 65.0081 65.9735 68.6338 62.2516 69.8747C58.0336 71.2822 53.4281 70.9383 49.0001 71.5055C44.5721 72.0728 39.8016 74.0038 38.1944 78.0018C35.9648 83.5479 40.9302 89.2429 45.7819 92.9478C55.5015 100.366 66.5497 106.171 78.2939 110.032C82.5032 111.416 86.93 112.617 90.3544 115.35C93.7801 118.08 95.9035 122.889 93.9326 126.718C91.9617 130.553 86.75 131.851 82.3545 131.15C77.959 130.452 73.9922 128.261 69.7891 126.837C61.9217 124.166 51.8346 124.839 46.9429 131.321C43.7272 135.581 43.5423 141.446 45.297 146.433C47.0504 151.422 50.5036 155.686 54.1617 159.615C66.9433 173.339 83.1844 184.29 101.426 189.953C119.666 195.618 136.499 196.96 154.409 190.425Z" fill="#F3AF47"/>
<path fill-rule="evenodd" clip-rule="evenodd" d="M157.203 239.662C157.748 232.427 157.343 228.359 155.842 215.437C154.375 202.52 151.134 187.29 145.781 170.906C140.46 154.509 133.068 136.995 124.68 118.931C122.564 114.425 120.477 109.97 118.417 105.579C116.35 101.202 114.3 96.8601 112.022 92.7321C107.503 84.4561 102.498 76.8288 97.5093 69.731C92.5238 62.6273 87.5209 56.0578 82.7967 49.9515C78.0563 43.8524 73.5258 38.246 69.1702 33.3049C60.4842 23.3874 52.5055 16.1951 46.814 11.4715C43.9745 9.10084 41.7098 7.33053 40.1551 6.15111L38.3816 4.81806C37.978 4.52261 37.7667 4.37843 37.7542 4.39143C37.7417 4.40679 37.9317 4.57697 38.3154 4.89842C38.7391 5.24822 39.3065 5.71385 40.0226 6.30592C41.5324 7.53852 43.7545 9.35374 46.549 11.7658C52.1481 16.5756 60.018 23.8199 68.6053 33.7635C72.9159 38.7199 77.4001 44.3393 82.1031 50.4526C86.7935 56.5778 91.764 63.1521 96.7156 70.2498C101.669 77.3453 106.639 84.9548 111.119 93.1918C113.38 97.302 115.405 101.606 117.475 105.996C119.529 110.384 121.615 114.839 123.729 119.342C132.11 137.39 139.511 154.85 144.868 171.185C150.254 187.505 153.554 202.656 155.11 215.516C156.699 228.382 157.218 232.408 156.797 239.634" fill="#263238"/>
<path fill-rule="evenodd" clip-rule="evenodd" d="M110.222 90.7574C110.283 90.7692 110.437 89.9443 110.666 88.4435C110.902 86.9473 111.176 84.7681 111.479 82.0713C112.091 76.6812 112.704 69.204 113.35 60.9587C113.998 52.7075 114.705 45.2611 115.388 39.8958C115.725 37.2131 116.016 35.0422 116.234 33.5461C116.446 32.0476 116.534 31.2097 116.471 31.1955C116.411 31.1813 116.209 31.992 115.89 33.4692C115.564 34.9465 115.176 37.1056 114.76 39.7859C113.91 45.1441 113.098 52.6082 112.452 60.8677C111.832 69.0067 111.273 76.3692 110.843 81.9956C110.636 84.5365 110.46 86.6779 110.317 88.395C110.197 89.9053 110.16 90.7467 110.222 90.7574Z" fill="#263238"/>
<path fill-rule="evenodd" clip-rule="evenodd" d="M37.7542 78.9495C37.7529 79.0181 38.7827 79.115 40.6399 79.2331C42.4946 79.3631 45.1804 79.5345 48.4924 79.8477C55.1188 80.4267 64.2397 81.5329 74.2518 83.1791C84.2614 84.8407 93.2536 86.7174 99.7151 88.2537C102.955 89.0006 105.558 89.6718 107.363 90.1268C109.162 90.5877 110.168 90.8123 110.192 90.7449C110.212 90.6787 109.243 90.3289 107.473 89.751C105.702 89.1802 103.121 88.4038 99.8963 87.5647C93.4611 85.8464 84.4613 83.8539 74.4218 82.1852C64.3822 80.5367 55.21 79.538 48.5486 79.1398C45.2204 78.9152 42.5196 78.8502 40.6537 78.8443C38.7865 78.8455 37.7554 78.8798 37.7542 78.9495ZM144.843 168.187C144.878 168.201 145.037 167.905 145.321 167.332L146.507 164.798C147.525 162.591 148.914 159.364 150.574 155.355C153.904 147.337 158.139 136.122 162.641 123.688C167.148 111.248 171.269 100.009 174.419 91.9373C175.964 88.0103 177.235 84.784 178.181 82.3838L179.188 79.7791C179.407 79.18 179.507 78.8585 179.475 78.8443C179.439 78.8325 179.277 79.1256 178.996 79.7011L177.812 82.2337C176.792 84.4365 175.404 87.6675 173.741 91.6761C170.413 99.6922 166.179 110.907 161.673 123.348C157.17 135.785 153.047 147.023 149.898 155.097C148.352 159.018 147.082 162.25 146.139 164.645C145.734 165.688 145.404 166.548 145.13 167.252C144.91 167.852 144.81 168.172 144.843 168.187Z" fill="#263238"/>
<path fill-rule="evenodd" clip-rule="evenodd" d="M47.2027 138.417C47.1939 138.453 47.5276 138.583 48.1738 138.8C48.9361 139.042 49.8735 139.339 51.0095 139.702L61.4653 142.906C70.2938 145.615 82.443 149.498 95.8621 153.803C109.286 158.114 121.485 161.886 130.369 164.412C134.813 165.676 138.417 166.663 140.921 167.294C142.082 167.578 143.035 167.811 143.812 168.003C144.474 168.153 144.828 168.216 144.836 168.178C144.846 168.143 144.511 168.014 143.867 167.795L141.032 166.896L130.577 163.692C121.749 160.982 109.597 157.1 96.1745 152.791C82.7555 148.483 70.5588 144.71 61.6715 142.185C57.2298 140.919 53.6254 139.933 51.1183 139.301L48.2288 138.592C47.5664 138.443 47.2139 138.382 47.2027 138.417Z" fill="#263238"/>
</g>
<mask id="mask1" mask-type="alpha" maskUnits="userSpaceOnUse" x="0" y="117" width="179" height="172">
<path d="M81.3683 117.532L0.000120229 183.782L96.9192 288.209L178.287 221.959L81.3683 117.532Z" fill="white"/>
</mask>
<g mask="url(#mask1)">
<path fill-rule="evenodd" clip-rule="evenodd" d="M161.152 230.156C163.722 207.221 146.881 185.678 128.515 169.458C125.451 166.752 122.595 163.53 118.755 162.273C114.914 161.02 110.265 162.131 109.21 165.558C108.333 168.398 110.07 171.624 111.127 174.664C112.533 178.706 112.75 182.972 111.745 186.809C111.087 189.331 109.655 191.874 107 192.483C103.358 193.321 99.5477 190.248 96.6023 187.456C91.1088 182.247 85.6171 177.043 80.1297 171.836C77.1835 169.045 74.1663 166.199 70.5576 164.341C66.948 162.482 62.5739 161.749 59.3422 163.384C56.1122 165.021 54.7179 169.483 57.1007 172.703C58.0941 174.045 59.5579 175.012 60.7171 176.235C61.8754 177.457 62.7392 179.214 62.0674 180.521C61.3919 181.844 59.5256 182.056 57.8911 181.989C52.2514 181.763 46.6014 179.899 41.0926 177.941C35.5787 175.982 30.0263 173.891 24.3621 173.17C18.6952 172.45 12.7873 173.266 8.87155 176.615C4.95496 179.969 3.65662 186.234 6.89126 191.042C10.1373 195.865 16.4849 197.784 22.1628 198.72C30.5832 200.105 39.0521 200.343 47.2119 199.417C48.6838 199.251 50.274 199.068 51.683 199.798C54.2155 201.107 54.5558 204.522 53.5159 206.776C52.3371 209.328 50.0297 211.132 48.3037 213.335C46.5715 215.537 45.4241 218.601 46.8506 221.387C48.8274 225.249 54.1926 226.091 58.4314 225.938C66.9144 225.634 75.1387 223.915 82.6307 220.877C85.3155 219.788 87.9997 218.509 91.0534 218.462C94.1088 218.417 97.6891 220.018 98.8533 222.869C100.024 225.724 98.3315 228.65 95.9291 230.175C93.5285 231.705 90.5203 232.264 87.8146 233.33C82.7522 235.321 78.4774 240.017 79.7353 245.513C80.5635 249.129 83.6529 252.275 87.1608 254.129C90.6652 255.984 94.5642 256.727 98.3708 257.209C111.677 258.883 125.076 257.62 136.532 252.727C147.987 247.835 156.453 241.287 161.152 230.156Z" fill="#E8505B"/>
</g>
<mask id="mask2" mask-type="alpha" maskUnits="userSpaceOnUse" x="0" y="117" width="179" height="172">
<path d="M81.3683 117.532L0.000120229 183.782L96.9192 288.209L178.287 221.959L81.3683 117.532Z" fill="white"/>
</mask>
<g mask="url(#mask2)">
<path fill-rule="evenodd" clip-rule="evenodd" d="M161.152 230.156C163.722 207.221 146.881 185.678 128.515 169.458C125.451 166.752 122.595 163.53 118.755 162.273C114.914 161.02 110.265 162.131 109.21 165.558C108.333 168.398 110.07 171.624 111.127 174.664C112.533 178.706 112.75 182.972 111.745 186.809C111.087 189.331 109.655 191.874 107 192.483C103.358 193.321 99.5477 190.248 96.6023 187.456C91.1088 182.247 85.6171 177.043 80.1297 171.836C77.1835 169.045 74.1663 166.199 70.5576 164.341C66.948 162.482 62.5739 161.749 59.3422 163.384C56.1122 165.021 54.7179 169.483 57.1007 172.703C58.0941 174.045 59.5579 175.012 60.7171 176.235C61.8754 177.457 62.7392 179.214 62.0674 180.521C61.3919 181.844 59.5256 182.056 57.8911 181.989C52.2514 181.763 46.6014 179.899 41.0926 177.941C35.5787 175.982 30.0263 173.891 24.3621 173.17C18.6952 172.45 12.7873 173.266 8.87155 176.615C4.95496 179.969 3.65662 186.234 6.89126 191.042C10.1373 195.865 16.4849 197.784 22.1628 198.72C30.5832 200.105 39.0521 200.343 47.2119 199.417C48.6838 199.251 50.274 199.068 51.683 199.798C54.2155 201.107 54.5558 204.522 53.5159 206.776C52.3371 209.328 50.0297 211.132 48.3037 213.335C46.5715 215.537 45.4241 218.601 46.8506 221.387C48.8274 225.249 54.1926 226.091 58.4314 225.938C66.9144 225.634 75.1387 223.915 82.6307 220.877C85.3155 219.788 87.9997 218.509 91.0534 218.462C94.1088 218.417 97.6891 220.018 98.8533 222.869C100.024 225.724 98.3315 228.65 95.9291 230.175C93.5285 231.705 90.5203 232.264 87.8146 233.33C82.7522 235.321 78.4774 240.017 79.7353 245.513C80.5635 249.129 83.6529 252.275 87.1608 254.129C90.6652 255.984 94.5642 256.727 98.3708 257.209C111.677 258.883 125.076 257.62 136.532 252.727C147.987 247.835 156.453 241.287 161.152 230.156Z" fill="#F8CD99"/>
<mask id="mask3" mask-type="alpha" maskUnits="userSpaceOnUse" x="4" y="132" width="190" height="187">
<path d="M69.2679 132.124L4.59769 184.832L128.557 318.53L193.228 265.822L69.2679 132.124Z" fill="white"/>
</mask>
<g mask="url(#mask3)">
<path fill-rule="evenodd" clip-rule="evenodd" d="M4.59772 184.833C4.60201 184.845 4.7797 184.854 5.1204 184.857C5.50165 184.859 6.00539 184.858 6.64712 184.864C7.98667 184.862 9.96021 184.859 12.5125 184.924C17.6118 185.042 25.0405 185.456 34.2363 186.968C38.8321 187.705 43.8623 188.715 49.2554 189.889C54.6477 191.073 60.4073 192.371 66.4408 193.95C72.4718 195.527 78.7855 197.36 85.2124 199.728C88.4293 200.899 91.6451 202.27 94.9282 203.666C98.2052 205.069 101.528 206.493 104.889 207.93C118.326 213.728 131.005 219.636 142.158 225.827C153.317 231.999 162.912 238.449 170.49 244.454C178.089 250.447 183.675 255.934 187.349 259.858C189.177 261.83 190.569 263.384 191.475 264.464L192.53 265.678C192.771 265.95 192.9 266.086 192.908 266.082C192.917 266.074 192.81 265.927 192.584 265.641L191.585 264.39C190.711 263.282 189.35 261.701 187.544 259.699C183.923 255.72 178.366 250.161 170.777 244.101C163.208 238.033 153.601 231.512 142.422 225.293C131.25 219.055 118.547 213.114 105.099 207.314C101.736 205.873 98.4095 204.452 95.1307 203.051C91.8562 201.659 88.6094 200.279 85.3761 199.107C78.9069 196.736 72.5683 194.905 66.52 193.342C60.47 191.778 54.7001 190.495 49.2991 189.334C43.8965 188.186 38.8533 187.203 34.2437 186.488C25.0186 185.035 17.5707 184.693 12.4757 184.658C9.92424 184.633 7.95324 184.677 6.62312 184.725L5.10926 184.789C4.76939 184.805 4.59601 184.819 4.59686 184.832" fill="#263238"/>
</g>
<path fill-rule="evenodd" clip-rule="evenodd" d="M87.3895 198.338C87.4504 198.295 87.1145 197.735 86.4531 196.758C85.7997 195.777 84.7844 194.404 83.4911 192.738C80.9194 189.401 77.1336 184.965 72.9271 180.095C68.7197 175.225 65.0381 170.727 62.5494 167.34C61.2949 165.656 60.3 164.277 59.6315 163.308C58.9559 162.346 58.5494 161.835 58.4824 161.878C58.4206 161.92 58.6999 162.513 59.2678 163.552C59.8268 164.596 60.7263 166.051 61.8996 167.803C64.2338 171.32 67.8306 175.914 72.0415 180.79C76.2085 185.576 79.9812 189.909 82.8616 193.221C84.1446 194.728 85.2314 195.998 86.1008 197.018C86.8735 197.911 87.3277 198.385 87.3895 198.338ZM49.9018 223.715C49.9282 223.738 50.4332 223.354 51.3198 222.637C52.2098 221.926 53.4937 220.889 55.1175 219.648C58.3429 217.149 62.911 213.818 68.0869 210.321C73.2734 206.833 78.079 203.839 81.6088 201.754C83.3689 200.701 84.8094 199.881 85.8041 199.309C86.8015 198.742 87.3444 198.41 87.3295 198.377C87.3119 198.345 86.7356 198.614 85.7083 199.127C84.6828 199.643 83.2098 200.414 81.4207 201.428C77.8328 203.437 72.977 206.391 67.7764 209.89C62.5846 213.397 58.0385 216.786 54.8666 219.368C53.2693 220.647 52.0188 221.728 51.1737 222.488C50.3293 223.254 49.8762 223.688 49.9018 223.715ZM145.071 222.279C145.095 222.272 145.013 222.046 144.837 221.626L144.035 219.793C143.329 218.204 142.249 215.923 140.878 213.117C138.138 207.503 134.11 199.836 129.551 191.418C124.991 182.999 120.899 175.368 118.046 169.806L114.684 163.206C114.317 162.489 114.011 161.901 113.763 161.414C113.541 161.007 113.419 160.798 113.394 160.803C113.372 160.814 113.454 161.038 113.631 161.458C113.845 161.953 114.111 162.557 114.431 163.289C115.136 164.879 116.217 167.16 117.587 169.966C120.328 175.58 124.354 183.248 128.915 191.668C133.472 200.084 137.566 207.714 140.42 213.28C141.8 215.99 142.938 218.219 143.779 219.875C144.15 220.592 144.452 221.183 144.705 221.669C144.925 222.075 145.049 222.286 145.072 222.279" fill="#263238"/>
<path fill-rule="evenodd" clip-rule="evenodd" d="M80.8141 248.964C80.8297 248.986 81.0614 248.902 81.4891 248.723L83.3469 247.902C85.0466 247.129 87.3414 246.087 90.13 244.817C95.8619 242.213 103.827 238.712 112.639 234.855C121.455 230.996 129.387 227.416 135.045 224.691C137.876 223.327 140.152 222.202 141.704 221.393C142.416 221.013 143.004 220.703 143.481 220.449C143.884 220.226 144.09 220.095 144.075 220.073C144.059 220.052 143.828 220.136 143.397 220.314C142.9 220.536 142.286 220.809 141.541 221.138L134.757 224.219C129.031 226.825 121.061 230.328 112.245 234.186C103.434 238.041 95.5026 241.622 89.8432 244.346C87.0112 245.709 84.7365 246.834 83.1847 247.644C82.4736 248.025 81.8849 248.335 81.4057 248.589C81.0046 248.812 80.7994 248.94 80.8141 248.964Z" fill="#263238"/>
</g>
</svg>

<svg width="155" height="253" fill="none" xmlns="http://www.w3.org/2000/svg"><mask id="a" maskUnits="userSpaceOnUse" x="28" y="0" width="161" height="195"><path d="M28.308 0H188v194.789H28.307V0z" fill="#fff"/></mask><g mask="url(#a)" fill-rule="evenodd" clip-rule="evenodd"><path d="M154.409 190.425c29.045-19.93 35.063-56.151 33.315-88.594-.291-5.417.235-11.137-2.57-15.85-2.809-4.708-9.215-7.855-14.294-5.49-4.213 1.965-5.981 6.674-8.288 10.584-3.067 5.202-7.701 9.54-13.196 12.354-3.61 1.85-8.095 3.017-11.726 1.196-4.978-2.498-5.674-8.945-5.736-14.337-.116-10.045-.231-20.09-.344-30.136-.062-5.389-.144-10.891-2.006-15.978-1.861-5.087-5.856-9.773-11.294-11.123-5.437-1.35-12.074 1.714-13.123 7.008-.436 2.203.077 4.475-.041 6.714-.118 2.24-1.173 4.732-3.405 5.391-2.26.67-4.563-.82-6.292-2.373-5.97-5.345-10.08-12.29-13.928-19.201-3.85-6.911-7.593-13.989-13.028-19.84C63.022 4.903 55.568.318 47.412.012 39.257-.29 30.662 4.611 28.74 12.22c-1.928 7.633 2.887 15.265 8.091 21.334C44.55 42.557 53.631 50.483 63.7 57c1.815 1.179 3.783 2.449 4.505 4.434 1.299 3.574-2.23 7.2-5.952 8.44-4.218 1.408-8.824 1.064-13.252 1.632-4.428.567-9.198 2.498-10.806 6.496-2.23 5.546 2.736 11.24 7.588 14.946 9.72 7.418 20.768 13.223 32.512 17.084 4.21 1.384 8.636 2.585 12.06 5.318 3.426 2.73 5.55 7.539 3.579 11.368-1.971 3.835-7.183 5.133-11.579 4.432-4.395-.698-8.362-2.889-12.565-4.313-7.867-2.671-17.954-1.998-22.846 4.484-3.216 4.26-3.4 10.125-1.646 15.112 1.753 4.989 5.207 9.253 8.865 13.182 12.781 13.724 29.022 24.675 47.264 30.338 18.24 5.665 35.073 7.007 52.983.472z" fill="#F3AF47"/><path d="M157.203 239.662c.545-7.235.14-11.303-1.361-24.225-1.467-12.917-4.708-28.147-10.061-44.531-5.321-16.397-12.713-33.911-21.101-51.975-2.116-4.506-4.203-8.961-6.263-13.352-2.067-4.377-4.117-8.719-6.395-12.847-4.519-8.276-9.524-15.903-14.513-23.001-4.985-7.104-9.988-13.673-14.712-19.78-4.74-6.099-9.271-11.705-13.627-16.646-8.686-9.918-16.665-17.11-22.356-21.834a183.775 183.775 0 00-6.659-5.32l-1.773-1.333c-.404-.295-.615-.44-.628-.427-.012.016.178.186.561.507.424.35.992.816 1.708 1.408a293.468 293.468 0 016.526 5.46 208.376 208.376 0 0122.056 21.998c4.31 4.956 8.795 10.575 13.498 16.689 4.69 6.125 9.661 12.7 14.613 19.797 4.953 7.095 9.923 14.705 14.403 22.942 2.261 4.11 4.286 8.414 6.356 12.804 2.054 4.388 4.14 8.843 6.254 13.346 8.381 18.048 15.782 35.508 21.139 51.843 5.386 16.32 8.686 31.471 10.242 44.331 1.589 12.866 2.108 16.892 1.687 24.118" fill="#263238"/><path d="M110.222 90.757c.061.012.215-.813.444-2.314.236-1.496.51-3.675.813-6.372.612-5.39 1.225-12.867 1.871-21.112.648-8.252 1.355-15.698 2.038-21.063.337-2.683.628-4.854.846-6.35.212-1.498.3-2.336.237-2.35-.06-.015-.262.796-.581 2.273-.326 1.477-.714 3.637-1.13 6.317-.85 5.358-1.662 12.822-2.308 21.082-.62 8.139-1.179 15.501-1.609 21.128-.207 2.54-.383 4.682-.526 6.399-.12 1.51-.157 2.352-.095 2.362z" fill="#263238"/><path d="M37.754 78.95c-.001.068 1.029.165 2.886.283 1.855.13 4.54.301 7.852.615 6.627.579 15.748 1.685 25.76 3.331 10.01 1.662 19.002 3.538 25.463 5.075 3.24.747 5.843 1.418 7.648 1.873 1.799.46 2.805.685 2.829.618.02-.066-.949-.416-2.719-.994a139.948 139.948 0 00-7.577-2.186c-6.435-1.719-15.435-3.711-25.474-5.38-10.04-1.648-19.212-2.647-25.873-3.045-3.329-.225-6.03-.29-7.895-.296-1.868.002-2.899.036-2.9.106zm107.089 89.237c.035.014.194-.282.478-.855l1.186-2.534c1.018-2.207 2.407-5.434 4.067-9.443 3.33-8.018 7.565-19.233 12.067-31.667 4.507-12.44 8.628-23.679 11.778-31.75 1.545-3.928 2.816-7.154 3.762-9.554l1.007-2.605c.219-.599.319-.92.287-.935-.036-.011-.198.282-.479.857l-1.184 2.533c-1.02 2.203-2.408 5.434-4.071 9.442-3.328 8.016-7.562 19.231-12.068 31.672-4.503 12.437-8.626 23.675-11.775 31.749-1.546 3.921-2.816 7.153-3.759 9.548-.405 1.043-.735 1.903-1.009 2.607-.22.6-.32.92-.287.935z" fill="#263238"/><path d="M47.203 138.417c-.01.036.325.166.97.383.763.242 1.7.539 2.837.902l10.455 3.204c8.829 2.709 20.978 6.592 34.397 10.897 13.424 4.311 25.623 8.083 34.507 10.609 4.444 1.264 8.048 2.251 10.552 2.882 1.161.284 2.114.517 2.891.709.662.15 1.016.213 1.024.175.01-.035-.325-.164-.969-.383l-2.835-.899-10.455-3.204c-8.828-2.71-20.98-6.592-34.403-10.901-13.419-4.308-25.615-8.081-34.503-10.606-4.441-1.266-8.046-2.252-10.553-2.884l-2.89-.709c-.662-.149-1.014-.21-1.025-.175z" fill="#263238"/></g><mask id="b" maskUnits="userSpaceOnUse" x="0" y="117" width="179" height="172"><path d="M81.368 117.532L0 183.782l96.92 104.427 81.367-66.25-96.919-104.427z" fill="#fff"/></mask><g mask="url(#b)"><path fill-rule="evenodd" clip-rule="evenodd" d="M161.152 230.156c2.57-22.935-14.271-44.478-32.637-60.698-3.064-2.706-5.92-5.928-9.76-7.185-3.841-1.253-8.49-.142-9.545 3.285-.877 2.84.86 6.066 1.917 9.106 1.406 4.042 1.623 8.308.618 12.145-.658 2.522-2.09 5.065-4.745 5.674-3.642.838-7.452-2.235-10.398-5.027-5.493-5.209-10.985-10.413-16.472-15.62-2.947-2.791-5.964-5.637-9.572-7.495-3.61-1.859-7.984-2.592-11.216-.957-3.23 1.637-4.624 6.099-2.241 9.319.993 1.342 2.457 2.309 3.616 3.532 1.158 1.222 2.022 2.979 1.35 4.286-.675 1.323-2.541 1.535-4.176 1.468-5.64-.226-11.29-2.09-16.798-4.048-5.514-1.959-11.067-4.05-16.73-4.771-5.668-.72-11.576.096-15.491 3.445-3.917 3.354-5.215 9.619-1.98 14.427 3.245 4.823 9.593 6.742 15.27 7.678 8.421 1.385 16.89 1.623 25.05.697 1.472-.166 3.062-.349 4.471.381 2.532 1.309 2.873 4.724 1.833 6.978-1.179 2.552-3.486 4.356-5.212 6.559-1.733 2.202-2.88 5.266-1.453 8.052 1.976 3.862 7.342 4.704 11.58 4.551 8.483-.304 16.708-2.023 24.2-5.061 2.684-1.089 5.369-2.368 8.422-2.415 3.056-.045 6.636 1.556 7.8 4.407 1.171 2.855-.521 5.781-2.924 7.306-2.4 1.53-5.409 2.089-8.114 3.155-5.063 1.991-9.338 6.687-8.08 12.183.829 3.616 3.918 6.762 7.426 8.616 3.504 1.855 7.403 2.598 11.21 3.08 13.306 1.674 26.705.411 38.161-4.482 11.455-4.892 19.921-11.44 24.62-22.571z" fill="#E8505B"/></g><mask id="c" maskUnits="userSpaceOnUse" x="0" y="117" width="179" height="172"><path d="M81.368 117.532L0 183.782l96.92 104.427 81.367-66.25-96.919-104.427z" fill="#fff"/></mask><g mask="url(#c)"><path fill-rule="evenodd" clip-rule="evenodd" d="M161.152 230.156c2.57-22.935-14.271-44.478-32.637-60.698-3.064-2.706-5.92-5.928-9.76-7.185-3.841-1.253-8.49-.142-9.545 3.285-.877 2.84.86 6.066 1.917 9.106 1.406 4.042 1.623 8.308.618 12.145-.658 2.522-2.09 5.065-4.745 5.674-3.642.838-7.452-2.235-10.398-5.027-5.493-5.209-10.985-10.413-16.472-15.62-2.947-2.791-5.964-5.637-9.572-7.495-3.61-1.859-7.984-2.592-11.216-.957-3.23 1.637-4.624 6.099-2.241 9.319.993 1.342 2.457 2.309 3.616 3.532 1.158 1.222 2.022 2.979 1.35 4.286-.675 1.323-2.541 1.535-4.176 1.468-5.64-.226-11.29-2.09-16.798-4.048-5.514-1.959-11.067-4.05-16.73-4.771-5.668-.72-11.576.096-15.491 3.445-3.917 3.354-5.215 9.619-1.98 14.427 3.245 4.823 9.593 6.742 15.27 7.678 8.421 1.385 16.89 1.623 25.05.697 1.472-.166 3.062-.349 4.471.381 2.532 1.309 2.873 4.724 1.833 6.978-1.179 2.552-3.486 4.356-5.212 6.559-1.733 2.202-2.88 5.266-1.453 8.052 1.976 3.862 7.342 4.704 11.58 4.551 8.483-.304 16.708-2.023 24.2-5.061 2.684-1.089 5.369-2.368 8.422-2.415 3.056-.045 6.636 1.556 7.8 4.407 1.171 2.855-.521 5.781-2.924 7.306-2.4 1.53-5.409 2.089-8.114 3.155-5.063 1.991-9.338 6.687-8.08 12.183.829 3.616 3.918 6.762 7.426 8.616 3.504 1.855 7.403 2.598 11.21 3.08 13.306 1.674 26.705.411 38.161-4.482 11.455-4.892 19.921-11.44 24.62-22.571z" fill="#F8CD99"/><mask id="d" maskUnits="userSpaceOnUse" x="4" y="132" width="190" height="187"><path d="M69.268 132.124l-64.67 52.708L128.557 318.53l64.671-52.708-123.96-133.698z" fill="#fff"/></mask><g mask="url(#d)"><path fill-rule="evenodd" clip-rule="evenodd" d="M4.598 184.833c.004.012.182.021.522.024.382.002.885.001 1.527.007 1.34-.002 3.313-.005 5.865.06 5.1.118 12.529.532 21.724 2.044 4.596.737 9.626 1.747 15.02 2.921 5.392 1.184 11.151 2.482 17.185 4.061 6.03 1.577 12.344 3.41 18.771 5.778 3.217 1.171 6.433 2.542 9.716 3.938 3.277 1.403 6.6 2.827 9.961 4.264 13.437 5.798 26.116 11.706 37.269 17.897 11.159 6.172 20.754 12.622 28.332 18.627 7.599 5.993 13.185 11.48 16.859 15.404 1.828 1.972 3.22 3.526 4.126 4.606l1.055 1.214c.241.272.37.408.378.404.009-.008-.098-.155-.324-.441l-.999-1.251c-.874-1.108-2.235-2.689-4.041-4.691-3.621-3.979-9.178-9.538-16.767-15.598-7.569-6.068-17.176-12.589-28.355-18.808-11.172-6.238-23.875-12.179-37.323-17.979-3.363-1.441-6.69-2.862-9.968-4.263-3.275-1.392-6.522-2.772-9.755-3.944-6.47-2.371-12.808-4.202-18.856-5.765-6.05-1.564-11.82-2.847-17.22-4.008-5.403-1.148-10.447-2.131-15.056-2.846-9.225-1.453-16.673-1.795-21.768-1.83-2.552-.025-4.523.019-5.853.067l-1.514.064c-.34.016-.513.03-.512.043" fill="#263238"/></g><path fill-rule="evenodd" clip-rule="evenodd" d="M87.39 198.338c.06-.043-.275-.603-.937-1.58-.653-.981-1.669-2.354-2.962-4.02-2.572-3.337-6.357-7.773-10.564-12.643-4.207-4.87-7.889-9.368-10.378-12.755a145.79 145.79 0 01-2.917-4.032c-.676-.962-1.083-1.473-1.15-1.43-.061.042.218.635.786 1.674.559 1.044 1.458 2.499 2.632 4.251 2.334 3.517 5.93 8.111 10.142 12.987 4.166 4.786 7.94 9.119 10.82 12.431 1.283 1.507 2.37 2.777 3.239 3.797.773.893 1.227 1.367 1.288 1.32zm-37.488 25.377c.026.023.531-.361 1.418-1.078.89-.711 2.174-1.748 3.797-2.989 3.226-2.499 7.794-5.83 12.97-9.327 5.186-3.488 9.992-6.482 13.522-8.567 1.76-1.053 3.2-1.873 4.195-2.445.998-.567 1.54-.899 1.525-.932-.017-.032-.593.237-1.62.75a99.58 99.58 0 00-4.288 2.301c-3.588 2.009-8.444 4.963-13.645 8.462-5.191 3.507-9.737 6.896-12.91 9.478a85.813 85.813 0 00-3.692 3.12c-.845.766-1.298 1.2-1.272 1.227zm95.169-1.436c.024-.007-.058-.233-.234-.653l-.802-1.833c-.706-1.589-1.786-3.87-3.157-6.676-2.74-5.614-6.768-13.281-11.327-21.699-4.56-8.419-8.652-16.05-11.505-21.612l-3.362-6.6c-.367-.717-.673-1.305-.921-1.792-.222-.407-.344-.616-.369-.611-.022.011.06.235.237.655.214.495.48 1.099.8 1.831.705 1.59 1.786 3.871 3.156 6.677 2.741 5.614 6.767 13.282 11.328 21.702 4.557 8.416 8.651 16.046 11.505 21.612 1.38 2.71 2.518 4.939 3.359 6.595.371.717.673 1.308.926 1.794.22.406.344.617.367.61" fill="#263238"/><path fill-rule="evenodd" clip-rule="evenodd" d="M80.814 248.964c.016.022.247-.062.675-.241l1.858-.821c1.7-.773 3.994-1.815 6.783-3.085 5.732-2.604 13.697-6.105 22.509-9.962 8.816-3.859 16.748-7.439 22.406-10.164 2.831-1.364 5.107-2.489 6.659-3.298.712-.38 1.3-.69 1.777-.944.403-.223.609-.354.594-.376-.016-.021-.247.063-.678.241-.497.222-1.111.495-1.856.824l-6.784 3.081c-5.726 2.606-13.696 6.109-22.512 9.967-8.811 3.855-16.742 7.436-22.402 10.16-2.832 1.363-5.106 2.488-6.658 3.298-.711.381-1.3.691-1.78.945-.4.223-.606.351-.59.375z" fill="#263238"/></g></svg>
